dist/svgs/org-building.svg

<svg xmlns="http://www.w3.org/2000/svg" viewBox="0 0 512 512"><path d="M371 0q35 0 59 24t24 59v410q0 8-5.5 13.5T435 512H77q-8 0-14-5.5T57 493V83q0-35 24.5-59T141 0h230zm45 83q0-18-13-31.5T371 38H141q-19 0-32 13.5T96 83v391h109v-96q0-19 19-19h64q19 0 19 19v96h109V83zm-223 0q8 0 13.5 5.5T212 102v23q0 8-5.5 13.5T193 144h-23q-19 0-19-19v-23q0-8 5.5-13.5T170 83h23zm149 0q8 0 13.5 5.5T361 102v23q0 19-19 19h-23q-8 0-13.5-5.5T300 125v-23q0-8 5.5-13.5T319 83h23zm0 87q8 0 13.5 5.5T361 189v23q0 19-19 19h-23q-8 0-13.5-5.5T300 212v-23q0-8 5.5-13.5T319 170h23zm-149 0q8 0 13.5 5.5T212 189v23q0 8-5.5 13.5T193 231h-23q-19 0-19-19v-23q0-8 5.5-13.5T170 170h23zm0 87q8 0 13.5 5.5T212 276v23q0 8-5.5 13.5T193 318h-23q-19 0-19-19v-23q0-8 5.5-13.5T170 257h23zm149 0q8 0 13.5 5.5T361 276v23q0 19-19 19h-23q-8 0-13.5-5.5T300 299v-23q0-8 5.5-13.5T319 257h23z"/></svg>

<?xml version="1.0" encoding="UTF-8" standalone="no"?><svg   xmlns:svg="http://www.w3.org/2000/svg"   xmlns="http://www.w3.org/2000/svg"   version="1.1"   width="512"   height="512"   viewBox="0 0 512 512">  <path     d="M371 0Q406 0 430 24T454 83V493Q454 501 448.5 506.5T435 512H77Q69 512 63 506.5T57 493V83Q57 48 81.5 24T141 0H371zM416 83Q416 65 403 51.5T371 38H141Q122 38 109 51.5T96 83V474H205V378Q205 359 224 359H288Q307 359 307 378V474H416V83zM193 83Q201 83 206.5 88.5T212 102V125Q212 133 206.5 138.5T193 144H170Q151 144 151 125V102Q151 94 156.5 88.5T170 83H193zM342 83Q350 83 355.5 88.5T361 102V125Q361 144 342 144H319Q311 144 305.5 138.5T300 125V102Q300 94 305.5 88.5T319 83H342zM342 170Q350 170 355.5 175.5T361 189V212Q361 231 342 231H319Q311 231 305.5 225.5T300 212V189Q300 181 305.5 175.5T319 170H342zM193 170Q201 170 206.5 175.5T212 189V212Q212 220 206.5 225.5T193 231H170Q151 231 151 212V189Q151 181 156.5 175.5T170 170H193zM193 257Q201 257 206.5 262.5T212 276V299Q212 307 206.5 312.5T193 318H170Q151 318 151 299V276Q151 268 156.5 262.5T170 257H193zM342 257Q350 257 355.5 262.5T361 276V299Q361 318 342 318H319Q311 318 305.5 312.5T300 299V276Q300 268 305.5 262.5T319 257H342z"     id="org-building" /></svg>
